res/luts/Custom.cube
LUT_3D_SIZE 16
-0.141000 -0.141000 -0.141000
-0.138309 -0.138309 -0.138309
-0.126468 -0.126468 -0.126468
-0.108772 -0.108772 -0.108772
-0.052189 -0.052189 -0.052189
0.116946 0.116946 0.116946
0.176271 0.176272 0.176272
0.227670 0.227670 0.227670
0.275850 0.275850 0.275850
0.322221 0.322221 0.322221
0.367233 0.367233 0.367233
0.410968 0.410968 0.410968
0.453518 0.453518 0.453518
0.494790 0.494790 0.494790
0.534458 0.534458 0.534458
0.574051 0.574051 0.574051
-0.131635 -0.131635 -0.131635
-0.128660 -0.128660 -0.128660
-0.115829 -0.115829 -0.115829
-0.098703 -0.098703 -0.098703
0.026186 0.026186 0.026187
0.125355 0.125355 0.125355
0.181484 0.181484 0.181484
0.231563 0.231563 0.231563
0.278989 0.278989 0.278989
0.324840 0.324840 0.324840
0.369474 0.369474 0.369474
0.412922 0.412922 0.412922
0.455244 0.455244 0.455244
0.496336 0.496336 0.496336
0.535824 0.535824 0.535824
0.575311 0.575311 0.575311
-0.076014 -0.076014 -0.076014
-0.069561 -0.069561 -0.069561
0.012189 0.012189 0.012189
0.041418 0.041418 0.041418
0.104444 0.104444 0.104444
0.154714 0.154714 0.154714
0.201703 0.201703 0.201703
0.247256 0.247256 0.247256
0.291868 0.291868 0.291868
0.335747 0.335747 0.335747
0.378893 0.378893 0.378893
0.421163 0.421163 0.421163
0.462547 0.462547 0.462547
0.502861 0.502861 0.502861
0.541698 0.541698 0.541698
0.580616 0.580616 0.580616
0.110703 0.110703 0.110703
0.113393 0.113393 0.113393
0.124008 0.124008 0.124008
0.142353 0.142353 0.142353
0.164122 0.164122 0.164122
0.197890 0.197890 0.197890
0.235807 0.235807 0.235807
0.275452 0.275452 0.275452
0.315796 0.315796 0.315796
0.356422 0.356422 0.356422
0.397050 0.397050 0.397050
0.437228 0.437228 0.437228
0.476874 0.476874 0.476874
0.515746 0.515746 0.515746
0.553334 0.553334 0.553334
0.591187 0.591187 0.591187
0.190338 0.190338 0.190338
0.191579 0.191579 0.191579
0.196819 0.196819 0.196819
0.206890 0.206890 0.206890
0.221679 0.221679 0.221679
0.247644 0.247644 0.247644
0.279204 0.279204 0.279204
0.313564 0.313564 0.313564
0.349527 0.349527 0.349527
0.386427 0.386427 0.386427
0.423827 0.423827 0.423827
0.461311 0.461311 0.461311
0.498610 0.498610 0.498610
0.535437 0.535437 0.535437
0.571215 0.571215 0.571215
0.607568 0.607568 0.607568
0.264156 0.264156 0.264156
0.264990 0.264990 0.264990
0.268541 0.268541 0.268541
0.275531 0.275531 0.275531
0.286242 0.286242 0.286242
0.300549 0.300549 0.300549
0.328164 0.328164 0.328164
0.358601 0.358601 0.358601
0.390752 0.390752 0.390752
0.424132 0.424132 0.424132
0.458274 0.458274 0.458274
0.492785 0.492785 0.492785
0.527373 0.527373 0.527373
0.561786 0.561786 0.561786
0.595397 0.595397 0.595397
0.629839 0.629839 0.629839
0.337331 0.337331 0.337331
0.337960 0.337960 0.337960
0.340684 0.340684 0.340684
0.346080 0.346080 0.346080
0.354442 0.354442 0.354442
0.365919 0.365919 0.365919
0.380363 0.380363 0.380363
0.408151 0.408151 0.408151
0.437420 0.437420 0.437420
0.467774 0.467774 0.467774
0.498917 0.498917 0.498917
0.530538 0.530538 0.530538
0.562398 0.562398 0.562398
0.594232 0.594232 0.594232
0.625424 0.625424 0.625424
0.657708 0.657708 0.657708
0.410390 0.410390 0.410390
0.410875 0.410875 0.410875
0.413072 0.413072 0.413072
0.417455 0.417455 0.417455
0.424329 0.424329 0.424329
0.433859 0.433859 0.433859
0.446017 0.446017 0.446017
0.460740 0.460740 0.460740
0.487917 0.487917 0.487917
0.515881 0.515881 0.515881
0.544477 0.544477 0.544477
0.573427 0.573427 0.573427
0.602694 0.602694 0.602694
0.631958 0.631958 0.631958
0.660689 0.660689 0.660689
0.690712 0.690712 0.690712
0.483023 0.483023 0.483023
0.483454 0.483454 0.483454
0.485277 0.485277 0.485277
0.488955 0.488955 0.488955
0.494763 0.494763 0.494763
0.502838 0.502838 0.502838
0.513236 0.513236 0.513236
0.526043 0.526043 0.526043
0.541039 0.541039 0.541039
0.567179 0.567179 0.567179
0.593681 0.593681 0.593681
0.620375 0.620375 0.620375
0.647250 0.647250 0.647250
0.674130 0.674130 0.674130
0.700480 0.700480 0.700480
0.728176 0.728176 0.728176
0.555094 0.555094 0.555094
0.555477 0.555477 0.555477
0.557053 0.557053 0.557053
0.560209 0.560209 0.560209
0.565190 0.565190 0.565190
0.572164 0.572164 0.572164
0.581208 0.581208 0.581208
0.592376 0.592376 0.592376
0.605622 0.605622 0.605622
0.620894 0.620894 0.620894
0.645706 0.645706 0.645706
0.670517 0.670517 0.670517
0.695314 0.695314 0.695314
0.720017 0.720017 0.720017
0.744021 0.744021 0.744021
0.769630 0.769630 0.769630
0.626378 0.626378 0.626378
0.626729 0.626729 0.626729
0.628062 0.628062 0.628062
0.630788 0.630788 0.630788
0.635133 0.635133 0.635133
0.641223 0.641223 0.641223
0.649214 0.649214 0.649214
0.659082 0.659082 0.659082
0.670816 0.670816 0.670816
0.684484 0.684484 0.684484
0.699994 0.699994 0.699994
0.723190 0.723190 0.723190
0.746164 0.746164 0.746164
0.768924 0.768924 0.768924
0.790878 0.790878 0.790878
0.814449 0.814449 0.814449
0.696395 0.696395 0.696395
0.696692 0.696692 0.696692
0.697880 0.697880 0.697880
0.700308 0.700308 0.700308
0.704085 0.704085 0.704085
0.709497 0.709497 0.709497
0.716559 0.716559 0.716559
0.725317 0.725317 0.725317
0.735818 0.735818 0.735818
0.748052 0.748052 0.748052
0.762078 0.762078 0.762078
0.777722 0.777722 0.777722
0.799200 0.799200 0.799200
0.820245 0.820245 0.820245
0.840336 0.840336 0.840336
0.862045 0.862045 0.862045
0.765016 0.765016 0.765016
0.765266 0.765266 0.765266
0.766346 0.766346 0.766346
0.768465 0.768465 0.768465
0.771860 0.771860 0.771860
0.776657 0.776657 0.776657
0.782970 0.782970 0.782970
0.790839 0.790839 0.790839
0.800274 0.800274 0.800274
0.811323 0.811323 0.811323
0.824022 0.824022 0.824022
0.838238 0.838238 0.838238
0.854063 0.854063 0.854063
0.873569 0.873569 0.873569
0.891976 0.891976 0.891976
0.911965 0.911965 0.911965
0.831958 0.831958 0.831958
0.832196 0.832196 0.832196
0.833104 0.833104 0.833104
0.835027 0.835027 0.835027
0.838094 0.838094 0.838094
0.842408 0.842408 0.842408
0.848067 0.848067 0.848067
0.855173 0.855173 0.855173
0.863670 0.863670 0.863670
0.873725 0.873725 0.873725
0.885246 0.885246 0.885246
0.898260 0.898260 0.898260
0.912631 0.912631 0.912631
0.928483 0.928483 0.928483
0.945355 0.945355 0.945355
0.963837 0.963837 0.963837
0.896504 0.896504 0.896504
0.896717 0.896717 0.896717
0.897559 0.897559 0.897559
0.899288 0.899288 0.899288
0.902031 0.902031 0.902031
0.905937 0.905937 0.905937
0.911029 0.911029 0.911029
0.917465 0.917465 0.917465
0.925189 0.925189 0.925189
0.934296 0.934296 0.934296
0.944782 0.944782 0.944782
0.956650 0.956650 0.956650
0.969904 0.969904 0.969904
0.984443 0.984443 0.984443
1.000313 1.000313 1.000313
1.017445 1.017445 1.017445
0.961199 0.961199 0.961199
0.961370 0.961370 0.961370
0.962154 0.962154 0.962154
0.963701 0.963701 0.963701
0.966212 0.966212 0.966212
0.969783 0.969783 0.969783
0.974429 0.974429 0.974429
0.980218 0.980218 0.980218
0.987246 0.987246 0.987246
0.995608 0.995608 0.995608
1.005209 1.005209 1.005209
1.016094 1.016094 1.016094
1.028274 1.028274 1.028274
1.041714 1.041714 1.041714
1.056399 1.056399 1.056399
1.072304 1.072304 1.072304
-0.140097 -0.140097 -0.140097
-0.137379 -0.137379 -0.137379
-0.125455 -0.125455 -0.125455
-0.107817 -0.107817 -0.107817
-0.049476 -0.049476 -0.049476
0.117832 0.117832 0.117832
0.176811 0.176811 0.176811
0.228064 0.228064 0.228064
0.276172 0.276172 0.276172
0.322489 0.322489 0.322489
0.367470 0.367470 0.367470
0.411169 0.411169 0.411169
0.453699 0.453699 0.453699
0.494959 0.494959 0.494959
0.534602 0.534602 0.534602
0.574187 0.574187 0.574187
-0.130636 -0.130636 -0.130636
-0.127628 -0.127628 -0.127628
-0.114184 -0.114184 -0.114184
-0.093067 -0.093067 -0.093067
0.048045 0.048045 0.048045
0.128869 0.128869 0.128869
0.183281 0.183281 0.183281
0.232628 0.232628 0.232628
0.279658 0.279658 0.279658
0.325294 0.325294 0.325294
0.369800 0.369800 0.369800
0.413183 0.413183 0.413183
0.455431 0.455431 0.455431
0.496474 0.496474 0.496474
0.535975 0.535975 0.535975
0.575429 0.575429 0.575429
-0.073914 -0.073914 -0.073914
-0.066788 -0.066788 -0.066788
0.026543 0.026543 0.026543
0.052964 0.052964 0.052964
0.108883 0.108883 0.108883
0.157179 0.157179 0.157179
0.203194 0.203194 0.203194
0.248202 0.248202 0.248202
0.292480 0.292480 0.292480
0.336178 0.336178 0.336178
0.379201 0.379201 0.379201
0.421391 0.421391 0.421391
0.462714 0.462714 0.462714
0.503008 0.503008 0.503008
0.541822 0.541822 0.541822
0.580727 0.580727 0.580727
0.111623 0.111623 0.111623
0.115547 0.115547 0.115547
0.125637 0.125637 0.125637
0.143235 0.143235 0.143235
0.165875 0.165875 0.165875
0.199399 0.199399 0.199399
0.236917 0.236917 0.236917
0.276224 0.276224 0.276224
0.316330 0.316330 0.316330
0.356826 0.356826 0.356826
0.397332 0.397332 0.397332
0.437433 0.437433 0.437433
0.477039 0.477039 0.477039
0.515882 0.515882 0.515882
0.553464 0.553464 0.553464
0.591324 0.591324 0.591324
0.190759 0.190759 0.190759
0.192650 0.192650 0.192650
0.197766 0.197766 0.197766
0.207633 0.207633 0.207633
0.222163 0.222163 0.222163
0.248467 0.248467 0.248467
0.279948 0.279948 0.279948
0.314184 0.314184 0.314184
0.349981 0.349981 0.349981
0.386765 0.386765 0.386765
0.424095 0.424095 0.424095
0.461503 0.461503 0.461503
0.498786 0.498786 0.498786
0.535578 0.535578 0.535578
0.571352 0.571352 0.571352
0.607674 0.607673 0.607673
0.264438 0.264438 0.264438
0.265629 0.265629 0.265629
0.269138 0.269138 0.269138
0.276072 0.276072 0.276072
0.286676 0.286676 0.286676
0.300852 0.300852 0.300852
0.328602 0.328602 0.328602
0.359035 0.359035 0.359035
0.391102 0.391102 0.391102
0.424410 0.424410 0.424410
0.458495 0.458495 0.458495
0.492957 0.492957 0.492957
0.527537 0.527537 0.527537
0.561923 0.561923 0.561923
0.595521 0.595521 0.595521
0.629957 0.629957 0.629957
0.337542 0.337542 0.337542
0.338396 0.338396 0.338396
0.341067 0.341067 0.341067
0.346441 0.346441 0.346441
0.354792 0.354792 0.354792
0.366208 0.366208 0.366208
0.380594 0.380594 0.380594
0.408457 0.408457 0.408457
0.437688 0.437688 0.437688
0.468014 0.468014 0.468014
0.499119 0.499119 0.499119
0.530675 0.530675 0.530675
0.562526 0.562526 0.562526
0.594338 0.594338 0.594338
0.625522 0.625522 0.625522
0.657807 0.657807 0.657807
0.410552 0.410552 0.410552
0.411179 0.411179 0.411179
0.413342 0.413342 0.413342
0.417730 0.417730 0.417730
0.424591 0.424591 0.424591
0.434064 0.434064 0.434064
0.446208 0.446208 0.446208
0.460900 0.460900 0.460900
0.488108 0.488108 0.488108
0.516078 0.516078 0.516078
0.544638 0.544638 0.544638
0.573578 0.573578 0.573578
0.602795 0.602795 0.602795
0.632062 0.632062 0.632062
0.660773 0.660773 0.660773
0.690802 0.690802 0.690802
0.483175 0.483175 0.483175
0.483663 0.483663 0.483663
0.485482 0.485482 0.485482
0.489154 0.489154 0.489154
0.494951 0.494951 0.494951
0.503025 0.503025 0.503025
0.513424 0.513424 0.513424
0.526167 0.526167 0.526167
0.541154 0.541154 0.541154
0.567336 0.567336 0.567336
0.593802 0.593802 0.593802
0.620486 0.620486 0.620486
0.647389 0.647389 0.647389
0.674263 0.674263 0.674263
0.700568 0.700568 0.700568
0.728289 0.728289 0.728289
0.555254 0.555254 0.555254
0.555640 0.555640 0.555640
0.557214 0.557214 0.557214
0.560350 0.560350 0.560350
0.565331 0.565331 0.565331
0.572316 0.572316 0.572316
0.581357 0.581357 0.581357
0.592520 0.592520 0.592520
0.605734 0.605734 0.605734
0.621002 0.621002 0.621002
0.645850 0.645850 0.645850
0.670658 0.670658 0.670658
0.695449 0.695449 0.695449
0.720049 0.720049 0.720049
0.744086 0.744086 0.744086
0.769729 0.769729 0.769729
0.626510 0.626510 0.626510
0.626831 0.626831 0.626831
0.628202 0.628202 0.628202
0.630886 0.630886 0.630886
0.635229 0.635229 0.635229
0.641325 0.641325 0.641325
0.649311 0.649311 0.649311
0.659188 0.659188 0.659188
0.670955 0.670955 0.670955
0.684559 0.684559 0.684559
0.700081 0.700081 0.700081
0.723225 0.723225 0.723225
0.746221 0.746221 0.746221
0.769023 0.769023 0.769023
0.790915 0.790915 0.790915
0.814534 0.814534 0.814534
0.696526 0.696526 0.696526
0.696787 0.696787 0.696787
0.698017 0.698017 0.698017
0.700422 0.700422 0.700422
0.704178 0.704178 0.704178
0.709623 0.709623 0.709623
0.716682 0.716682 0.716682
0.725435 0.725435 0.725435
0.735929 0.735929 0.735929
0.748159 0.748159 0.748159
0.762175 0.762175 0.762175
0.777812 0.777812 0.777812
0.799283 0.799283 0.799283
0.820318 0.820318 0.820318
0.840369 0.840369 0.840369
0.862137 0.862137 0.862137
0.765078 0.765078 0.765078
0.765368 0.765368 0.765368
0.766378 0.766378 0.766378
0.768526 0.768526 0.768526
0.771960 0.771960 0.771960
0.776724 0.776724 0.776724
0.783059 0.783059 0.783059
0.790938 0.790938 0.790938
0.800356 0.800356 0.800356
0.811420 0.811420 0.811420
0.824106 0.824106 0.824106
0.838332 0.838332 0.838332
0.854080 0.854080 0.854080
0.873661 0.873661 0.873661
0.892015 0.892015 0.892015
0.912055 0.912055 0.912055
0.832039 0.832039 0.832039
0.832229 0.832229 0.832229
0.833185 0.833185 0.833185
0.835098 0.835098 0.835098
0.838159 0.838159 0.838159
0.842502 0.842502 0.842502
0.848161 0.848161 0.848161
0.855207 0.855207 0.855207
0.863743 0.863743 0.863743
0.873782 0.873782 0.873782
0.885313 0.885313 0.885313
0.898296 0.898296 0.898296
0.912697 0.912697 0.912697
0.928537 0.928537 0.928537
0.945406 0.945406 0.945406
0.963926 0.963926 0.963926
0.896595 0.896595 0.896595
0.896781 0.896781 0.896781
0.897650 0.897650 0.897650
0.899351 0.899351 0.899351
0.902122 0.902122 0.902122
0.906028 0.906027 0.906027
0.911119 0.911119 0.911119
0.917490 0.917490 0.917490
0.925244 0.925244 0.925244
0.934349 0.934349 0.934349
0.944831 0.944831 0.944831
0.956696 0.956696 0.956696
0.969945 0.969945 0.969945
0.984478 0.984478 0.984478
1.000371 1.000371 1.000371
1.017498 1.017498 1.017498
0.961242 0.961242 0.961242
0.961453 0.961453 0.961453
0.962197 0.962197 0.962197
0.963790 0.963790 0.963790
0.966254 0.966253 0.966253
0.969824 0.969824 0.969824
0.974468 0.974468 0.974468
0.980301 0.980301 0.980301
0.987334 0.987334 0.987334
0.995639 0.995639 0.995639
1.005267 1.005267 1.005267
1.016152 1.016152 1.016152
1.028331 1.028331 1.028331
1.041759 1.041759 1.041759
1.056455 1.056455 1.056455
1.072368 1.072368 1.072368
-0.136311 -0.136311 -0.136311
-0.133589 -0.133589 -0.133589
-0.120962 -0.120962 -0.120962
-0.103574 -0.103574 -0.103574
-0.034306 -0.034306 -0.034306
0.121527 0.121527 0.121527
0.179081 0.179081 0.179081
0.229753 0.229753 0.229753
0.277524 0.277524 0.277524
0.323626 0.323626 0.323626
0.368453 0.368453 0.368453
0.412022 0.412022 0.412022
0.454440 0.454440 0.454440
0.495608 0.495608 0.495608
0.535186 0.535185 0.535185
0.574727 0.574727 0.574727
-0.126834 -0.126834 -0.126834
-0.123295 -0.123295 -0.123295
-0.109075 -0.109075 -0.109075
-0.087940 -0.087940 -0.087940
0.058714 0.058714 0.058714
0.132131 0.132131 0.132131
0.185428 0.185428 0.185428
0.234265 0.234265 0.234265
0.280990 0.280990 0.280990
0.326418 0.326418 0.326418
0.370778 0.370778 0.370778
0.414011 0.414011 0.414011
0.456178 0.456178 0.456178
0.497171 0.497171 0.497171
0.536565 0.536565 0.536565
0.575969 0.575969 0.575969
-0.063777 -0.063777 -0.063777
-0.054848 -0.054848 -0.054848
0.049439 0.049439 0.049439
0.087094 0.087094 0.087094
0.125702 0.125702 0.125702
0.166467 0.166467 0.166467
0.208598 0.208598 0.208598
0.251471 0.251471 0.251471
0.294503 0.294503 0.294503
0.337444 0.337444 0.337444
0.380026 0.380026 0.380026
0.421956 0.421956 0.421956
0.463120 0.463120 0.463120
0.503324 0.503324 0.503324
0.542108 0.542108 0.542108
0.580995 0.580995 0.580995
0.115459 0.115459 0.115459
0.119108 0.119108 0.119108
0.132885 0.132885 0.132885
0.146776 0.146776 0.146776
0.173146 0.173146 0.173146
0.205255 0.205255 0.205255
0.240973 0.240973 0.240973
0.278928 0.278928 0.278928
0.318117 0.318117 0.318117
0.358001 0.358001 0.358001
0.398074 0.398074 0.398074
0.437986 0.437986 0.437986
0.477444 0.477444 0.477444
0.516202 0.516202 0.516202
0.553739 0.553739 0.553739
0.591587 0.591587 0.591587
0.192574 0.192574 0.192574
0.194411 0.194411 0.194411
0.201734 0.201734 0.201734
0.210737 0.210737 0.210737
0.224101 0.224101 0.224101
0.251698 0.251698 0.251698
0.282752 0.282752 0.282752
0.316260 0.316260 0.316260
0.351448 0.351448 0.351448
0.387776 0.387776 0.387776
0.424809 0.424809 0.424809
0.462014 0.462014 0.462014
0.499150 0.499150 0.499150
0.535883 0.535883 0.535883
0.571632 0.571632 0.571632
0.607958 0.607958 0.607958
0.265654 0.265654 0.265654
0.266823 0.266823 0.266823
0.271514 0.271514 0.271514
0.278190 0.278190 0.278190
0.288429 0.288429 0.288429
0.302123 0.302123 0.302123
0.330364 0.330364 0.330364
0.360596 0.360596 0.360596
0.392324 0.392324 0.392324
0.425296 0.425296 0.425296
0.459149 0.459149 0.459149
0.493421 0.493421 0.493421
0.527900 0.527900 0.527900
0.562217 0.562217 0.562217
0.595778 0.595778 0.595778
0.630179 0.630179 0.630179
0.338479 0.338479 0.338479
0.339307 0.339307 0.339307
0.342620 0.342620 0.342620
0.347895 0.347895 0.347895
0.356069 0.356069 0.356069
0.367319 0.367319 0.367319
0.381487 0.381487 0.381487
0.409513 0.409513 0.409513
0.438648 0.438648 0.438648
0.468776 0.468776 0.468776
0.499714 0.499714 0.499714
0.531124 0.531124 0.531124
0.562867 0.562867 0.562867
0.594626 0.594626 0.594626
0.625790 0.625790 0.625790
0.658050 0.658050 0.658050
0.411291 0.411291 0.411291
0.411922 0.411922 0.411922
0.414392 0.414392 0.414392
0.418747 0.418747 0.418747
0.425553 0.425553 0.425553
0.434965 0.434965 0.434965
0.447012 0.447012 0.447012
0.461592 0.461592 0.461592
0.488846 0.488846 0.488846
0.516718 0.516718 0.516718
0.545177 0.545177 0.545177
0.573981 0.573981 0.573981
0.603148 0.603148 0.603148
0.632334 0.632334 0.632334
0.661030 0.661030 0.661030
0.691030 0.691030 0.691030
0.483789 0.483789 0.483789
0.484285 0.484285 0.484285
0.486235 0.486235 0.486235
0.489908 0.489908 0.489908
0.495667 0.495667 0.495667
0.503711 0.503711 0.503711
0.514074 0.514074 0.514074
0.526768 0.526768 0.526768
0.541719 0.541719 0.541719
0.567875 0.567875 0.567875
0.594287 0.594287 0.594287
0.620885 0.620885 0.620885
0.647701 0.647701 0.647701
0.674494 0.674494 0.674494
0.700833 0.700833 0.700833
0.728514 0.728514 0.728514
0.555782 0.555782 0.555782
0.556224 0.556224 0.556224
0.557776 0.557776 0.557776
0.560901 0.560901 0.560901
0.565875 0.565875 0.565875
0.572837 0.572837 0.572837
0.581880 0.581880 0.581880
0.593027 0.593027 0.593027
0.606225 0.606225 0.606225
0.621484 0.621484 0.621484
0.646254 0.646254 0.646254
0.671002 0.671002 0.671002
0.695694 0.695694 0.695694
0.720335 0.720335 0.720335
0.744378 0.744378 0.744378
0.769953 0.769953 0.769953
0.626945 0.626945 0.626945
0.627274 0.627274 0.627274
0.628616 0.628616 0.628616
0.631346 0.631346 0.631346
0.635685 0.635685 0.635685
0.641778 0.641778 0.641778
0.649723 0.649723 0.649723
0.659576 0.659576 0.659576
0.671345 0.671345 0.671345
0.684995 0.684995 0.684995
0.700506 0.700506 0.700506
0.723613 0.723613 0.723613
0.746564 0.746564 0.746564
0.769255 0.769255 0.769255
0.791187 0.791187 0.791187
0.814712 0.814712 0.814712
0.696902 0.696902 0.696902
0.697163 0.697163 0.697163
0.698295 0.698295 0.698295
0.700787 0.700787 0.700787
0.704516 0.704516 0.704516
0.709862 0.709862 0.709862
0.716989 0.716989 0.716989
0.725861 0.725861 0.725861
0.736272 0.736272 0.736272
0.748496 0.748496 0.748496
0.762498 0.762498 0.762498
0.778170 0.778170 0.778170
0.799594 0.799594 0.799594
0.820583 0.820583 0.820583
0.840626 0.840626 0.840626
0.862322 0.862322 0.862322
0.765423 0.765423 0.765423
0.765708 0.765708 0.765708
0.766683 0.766683 0.766683
0.768839 0.768839 0.768839
0.772273 0.772273 0.772273
0.777037 0.777037 0.777037
0.783366 0.783366 0.783366
0.791219 0.791219 0.791219
0.800638 0.800638 0.800638
0.811730 0.811730 0.811730
0.824365 0.824365 0.824365
0.838640 0.838640 0.838640
0.854406 0.854406 0.854406
0.873902 0.873902 0.873902
0.892234 0.892234 0.892234
0.912245 0.912245 0.912245
0.832355 0.832355 0.832355
0.832593 0.832593 0.832593
0.833425 0.833425 0.833425
0.835385 0.835385 0.835385
0.838423 0.838423 0.838423
0.842743 0.842743 0.842743
0.848402 0.848402 0.848402
0.855471 0.855471 0.855471
0.864022 0.864022 0.864022
0.874037 0.874037 0.874037
0.885571 0.885571 0.885571
0.898537 0.898537 0.898537
0.912961 0.912961 0.912961
0.928832 0.928832 0.928832
0.945605 0.945605 0.945605
0.964139 0.964139 0.964139
0.896860 0.896860 0.896860
0.897101 0.897101 0.897101
0.897886 0.897886 0.897886
0.899571 0.899571 0.899571
0.902328 0.902328 0.902328
0.906259 0.906259 0.906259
0.911379 0.911379 0.911379
0.917750 0.917750 0.917750
0.925502 0.925502 0.925502
0.934605 0.934605 0.934605
0.945085 0.945085 0.945085
0.956947 0.956947 0.956947
0.970184 0.970184 0.970184
0.984718 0.984718 0.984718
1.000608 1.000608 1.000608
1.017711 1.017711 1.017711
0.961526 0.961526 0.961526
0.961696 0.961696 0.961696
0.962407 0.962407 0.962407
0.964003 0.964003 0.964003
0.966472 0.966472 0.966472
0.970042 0.970042 0.970042
0.974676 0.974676 0.974676
0.980514 0.980514 0.980514
0.987595 0.987595 0.987595
0.995903 0.995903 0.995903
1.005480 1.005480 1.005480
1.016369 1.016369 1.016369
1.028535 1.028535 1.028535
1.041970 1.041970 1.041970
1.056672 1.056672 1.056672
1.072576 1.072576 1.072576
-0.131294 -0.131294 -0.131294
-0.129112 -0.129112 -0.129112
-0.119139 -0.119139 -0.119139
-0.094115 -0.094115 -0.094115
0.044425 0.044425 0.044425
0.128589 0.128589 0.128589
0.183567 0.183567 0.183567
0.233132 0.233131 0.233131
0.280256 0.280256 0.280256
0.325901 0.325901 0.325901
0.370404 0.370404 0.370404
0.413733 0.413733 0.413733
0.455954 0.455954 0.455954
0.496964 0.496964 0.496964
0.536395 0.536395 0.536395
0.575825 0.575825 0.575825
-0.123740 -0.123740 -0.123740
-0.117471 -0.117471 -0.117471
-0.106260 -0.106260 -0.106260
-0.075995 -0.075995 -0.075995
0.074590 0.074590 0.074590
0.138406 0.138406 0.138406
0.189692 0.189692 0.189692
0.237545 0.237545 0.237545
0.283679 0.283679 0.283679
0.328687 0.328687 0.328687
0.372718 0.372718 0.372718
0.415683 0.415683 0.415683
0.457677 0.457677 0.457677
0.498493 0.498493 0.498493
0.537781 0.537781 0.537781
0.577080 0.577080 0.577080
-0.079568 -0.079568 -0.079568
-0.069155 -0.069155 -0.069155
0.065750 0.065750 0.065750
0.095654 0.095654 0.095654
0.131623 0.131623 0.131623
0.170951 0.170951 0.170951
0.212190 0.212190 0.212190
0.254433 0.254433 0.254433
0.297003 0.297003 0.297003
0.339590 0.339590 0.339590
0.381911 0.381911 0.381911
0.423599 0.423599 0.423599
0.464596 0.464596 0.464596
0.504637 0.504637 0.504637
0.543308 0.543308 0.543308
0.582097 0.582097 0.582097
0.122749 0.122749 0.122749
0.125924 0.125924 0.125924
0.137824 0.137824 0.137824
0.151101 0.151101 0.151101
0.172618 0.172618 0.172618
0.201483 0.201483 0.201483
0.235540 0.235540 0.235540
0.272819 0.272819 0.272819
0.311915 0.311915 0.311915
0.352001 0.352001 0.352001
0.392403 0.392403 0.392403
0.432727 0.432727 0.432727
0.472605 0.472605 0.472605
0.511791 0.511791 0.511791
0.549777 0.549777 0.549777
0.587969 0.587969 0.587969
0.196177 0.196177 0.196177
0.197923 0.197923 0.197923
0.204844 0.204844 0.204844
0.212479 0.212479 0.212479
0.226528 0.226528 0.226528
0.250911 0.250911 0.250911
0.279864 0.279864 0.279864
0.312182 0.312182 0.312182
0.346793 0.346793 0.346793
0.382926 0.382926 0.382926
0.419999 0.419999 0.419999
0.457409 0.457409 0.457409
0.494811 0.494811 0.494811
0.531827 0.531827 0.531827
0.567934 0.567934 0.567934
0.604552 0.604552 0.604552
0.268094 0.268094 0.268094
0.269239 0.269239 0.269239
0.273816 0.273816 0.273816
0.278732 0.278732 0.278732
0.289429 0.289429 0.289429
0.303738 0.303738 0.303738
0.329653 0.329653 0.329653
0.358329 0.358329 0.358329
0.389179 0.389179 0.389179
0.421673 0.421673 0.421673
0.455309 0.455309 0.455309
0.489577 0.489577 0.489577
0.524153 0.524153 0.524153
0.558670 0.558670 0.558670
0.592464 0.592464 0.592464
0.627095 0.627095 0.627095
0.340328 0.340328 0.340328
0.341153 0.341153 0.341153
0.344401 0.344401 0.344401
0.347847 0.347847 0.347847
0.356338 0.356338 0.356338
0.368008 0.368008 0.368008
0.382663 0.382663 0.382663
0.408964 0.408964 0.408964
0.436924 0.436924 0.436924
0.466326 0.466326 0.466326
0.496848 0.496848 0.496848
0.528056 0.528056 0.528056
0.559796 0.559796 0.559796
0.591593 0.591593 0.591593
0.622885 0.622885 0.622885
0.655271 0.655271 0.655271
0.412788 0.412788 0.412788
0.413421 0.413421 0.413421
0.415887 0.415887 0.415887
