res/luts/Custom.cube
LUT_3D_SIZE 6
-0.141000 -0.141000 -0.141000
-0.108772 -0.108772 -0.108772
0.176271 0.176272 0.176272
0.322221 0.322221 0.322221
0.453518 0.453518 0.453518
0.574051 0.574051 0.574051
0.110703 0.110703 0.110703
0.142353 0.142353 0.142353
0.235807 0.235807 0.235807
0.356422 0.356422 0.356422
0.476874 0.476874 0.476874
0.591187 0.591187 0.591187
0.337331 0.337331 0.337331
0.346080 0.346080 0.346080
0.380363 0.380363 0.380363
0.467774 0.467774 0.467774
0.562398 0.562398 0.562398
0.657708 0.657708 0.657708
0.555094 0.555094 0.555094
0.560209 0.560209 0.560209
0.581208 0.581208 0.581208
0.620894 0.620894 0.620894
0.695314 0.695314 0.695314
0.769630 0.769630 0.769630
0.765016 0.765016 0.765016
0.768465 0.768465 0.768465
0.782970 0.782970 0.782970
0.811323 0.811323 0.811323
0.854063 0.854063 0.854063
0.911965 0.911965 0.911965
0.961199 0.961199 0.961199
0.963701 0.963701 0.963701
0.974429 0.974429 0.974429
0.995608 0.995608 0.995608
1.028274 1.028274 1.028274
1.072304 1.072304 1.072304
-0.131294 -0.131294 -0.131294
-0.094115 -0.094115 -0.094115
0.183567 0.183567 0.183567
0.325901 0.325901 0.325901
0.455954 0.455954 0.455954
0.575825 0.575825 0.575825
0.122749 0.122749 0.122749
0.151101 0.151101 0.151101
0.235540 0.235540 0.235540
0.352001 0.352001 0.352001
0.472605 0.472605 0.472605
0.587969 0.587969 0.587969
0.340328 0.340328 0.340328
0.347847 0.347847 0.347847
0.382663 0.382663 0.382663
0.466326 0.466326 0.466326
0.559796 0.559796 0.559796
0.655271 0.655271 0.655271
0.556859 0.556859 0.556859
0.560421 0.560421 0.560421
0.581783 0.581783 0.581783
0.622068 0.622068 0.622068
0.694532 0.694532 0.694532
0.768265 0.768265 0.768265
0.766192 0.766192 0.766192
0.768417 0.768417 0.768417
0.783080 0.783080 0.783080
0.811717 0.811717 0.811717
0.854795 0.854795 0.854795
0.911599 0.911599 0.911599
0.962058 0.962058 0.962058
0.963685 0.963685 0.963685
0.974456 0.974456 0.974456
0.995757 0.995757 0.995757
1.028580 1.028580 1.028580
1.072834 1.072834 1.072834
-0.049232 -0.049232 -0.049232
0.099508 0.099508 0.099508
0.210925 0.210925 0.210925
0.341054 0.341054 0.341054
0.466166 0.466166 0.466166
0.583283 0.583283 0.583283
0.173580 0.173580 0.173580
0.185958 0.185958 0.185958
0.256106 0.256106 0.256106
0.365870 0.365870 0.365870
0.482422 0.482422 0.482422
0.595253 0.595253 0.595253
0.352768 0.352768 0.352768
0.360200 0.360200 0.360200
0.393501 0.393501 0.393501
0.462483 0.462483 0.462483
0.552765 0.552765 0.552765
0.649570 0.649570 0.649570
0.564177 0.564177 0.564177
0.567811 0.567811 0.567811
0.585275 0.585275 0.585275
0.627632 0.627632 0.627632
0.693175 0.693175 0.693175
0.765516 0.765516 0.765516
0.771173 0.771173 0.771173
0.773431 0.773431 0.773431
0.784627 0.784627 0.784627
0.814086 0.814086 0.814086
0.858376 0.858376 0.858376
0.911691 0.911691 0.911691
0.965718 0.965718 0.965718
0.967319 0.967319 0.967319
0.975560 0.975560 0.975560
0.997225 0.997225 0.997225
1.030550 1.030550 1.030550
1.075463 1.075463 1.075463
0.180453 0.180453 0.180453
0.203072 0.203072 0.203072
0.274176 0.274176 0.274176
0.369191 0.369191 0.369191
0.485993 0.485993 0.485993
0.598008 0.598008 0.598008
0.245920 0.245920 0.245920
0.246761 0.246761 0.246761
0.305727 0.305727 0.305727
0.392024 0.392024 0.392024
0.501554 0.501554 0.501554
0.609671 0.609671 0.609671
0.401465 0.401465 0.401465
0.403830 0.403830 0.403830
0.418747 0.418747 0.418747
0.482871 0.482871 0.482871
0.569182 0.569182 0.569182
0.662570 0.662570 0.662570
0.578642 0.578642 0.578642
0.582405 0.582405 0.582405
0.600134 0.600134 0.600134
0.641151 0.641151 0.641151
0.702192 0.702192 0.702192
0.774759 0.774759 0.774759
0.781176 0.781176 0.781176
0.783462 0.783462 0.783462
0.794855 0.794855 0.794855
0.822861 0.822861 0.822861
0.867147 0.867147 0.867147
0.919285 0.919285 0.919285
0.973043 0.973043 0.973043
0.974758 0.974758 0.974758
0.983012 0.983012 0.983012
1.004133 1.004133 1.004133
1.037258 1.037258 1.037258
1.081871 1.081871 1.081871
0.274462 0.274462 0.274462
0.288493 0.288493 0.288493
0.339902 0.339902 0.339902
0.419889 0.419889 0.419889
0.515541 0.515541 0.515541
0.620601 0.620601 0.620601
0.318348 0.318348 0.318348
0.316612 0.316612 0.316612
0.363135 0.363135 0.363135
0.438153 0.438153 0.438153
0.530173 0.530173 0.530173
0.631752 0.631752 0.631752
0.448870 0.448870 0.448870
0.448841 0.448841 0.448841
0.456489 0.456489 0.456489
0.515627 0.515627 0.515627
0.594146 0.594146 0.594146
0.682694 0.682694 0.682694
0.616391 0.616391 0.616391
0.617659 0.617659 0.617659
0.627056 0.627056 0.627056
0.662746 0.662746 0.662746
0.721264 0.721264 0.721264
0.791068 0.791068 0.791068
0.796803 0.796803 0.796803
0.799197 0.799197 0.799197
0.810719 0.810719 0.810719
0.838272 0.838272 0.838272
0.881484 0.881484 0.881484
0.935812 0.935812 0.935812
0.984684 0.984684 0.984684
0.986392 0.986392 0.986392
0.994713 0.994713 0.994713
1.015549 1.015549 1.015549
1.049264 1.049264 1.049264
1.092449 1.092449 1.092449
0.355630 0.355630 0.355630
0.365601 0.365601 0.365601
0.404495 0.404495 0.404495
0.470523 0.470523 0.470523
0.555044 0.555044 0.555044
0.650784 0.650784 0.650784
0.387736 0.387736 0.387736
0.386298 0.386298 0.386298
0.422805 0.422805 0.422805
0.485817 0.485817 0.485817
0.567702 0.567702 0.567702
0.661421 0.661421 0.661421
0.495606 0.495606 0.495606
0.495113 0.495113 0.495113
0.501678 0.501678 0.501678
0.553694 0.553694 0.553694
0.624926 0.624926 0.624926
0.709862 0.709862 0.709862
0.648132 0.648132 0.648132
0.648500 0.648500 0.648500
0.655290 0.655290 0.655290
0.690655 0.690655 0.690655
0.744892 0.744892 0.744892
0.813427 0.813427 0.813427
0.820075 0.820075 0.820075
0.821190 0.821190 0.821190
0.828664 0.828664 0.828664
0.854905 0.854905 0.854905
0.900435 0.900435 0.900435
0.953262 0.953262 0.953262
1.000865 1.000865 1.000865
1.002616 1.002616 1.002616
1.011030 1.011030 1.011030
1.031452 1.031452 1.031452
1.064209 1.064209 1.064209
1.106561 1.106561 1.106561
