res/luts/warmo.cube
LUT_3D_SIZE 6
0.000000 0.000000 0.000000
0.189449 0.000000 0.000000
0.397840 0.000000 0.000000
0.615556 0.000000 0.000000
0.832891 0.000000 0.000000
1.044401 0.000000 0.000000
0.000000 0.181312 0.000000
0.189449 0.181312 0.000000
0.397840 0.190372 0.000000
0.615556 0.196374 0.000000
0.832891 0.199274 0.000000
1.044401 0.199908 0.000000
0.000000 0.380742 0.000000
0.198929 0.380742 0.000000
0.397840 0.380742 0.000000
0.615556 0.392745 0.000000
0.832891 0.398526 0.000000
1.044401 0.399823 0.000000
0.000000 0.589083 0.000000
0.205187 0.589083 0.000000
0.410397 0.589083 0.000000
0.615556 0.589083 0.000000
0.832891 0.597783 0.000000
1.044401 0.599708 0.000000
0.000000 0.797078 0.000000
0.208231 0.797078 0.000000
0.416445 0.797078 0.000000
0.624656 0.797078 0.000000
0.832891 0.797078 0.000000
1.044401 0.799612 0.000000
0.000000 0.999489 0.000000
0.208881 0.999489 0.000000
0.417768 0.999489 0.000000
0.626641 0.999489 0.000000
0.835501 0.999489 0.000000
1.044401 0.999489 0.000000
0.000000 0.000000 0.173512
0.189449 0.000000 0.173512
0.397840 0.000000 0.182179
0.615556 0.000000 0.187927
0.832891 0.000000 0.190703
1.044401 0.000000 0.191314
0.000000 0.181312 0.173512
0.189449 0.181312 0.173512
0.397840 0.181312 0.173512
0.615556 0.181312 0.173512
0.832891 0.181312 0.173512
1.044401 0.181312 0.173512
0.000000 0.380742 0.182179
0.189449 0.380742 0.173512
0.397840 0.380742 0.173512
0.615556 0.389112 0.173512
0.832891 0.393122 0.173512
1.044401 0.393755 0.173512
0.000000 0.589083 0.187927
0.189449 0.589083 0.173512
0.406569 0.589083 0.173512
0.615556 0.589083 0.173512
0.832891 0.595900 0.173512
1.044401 0.596967 0.173512
0.000000 0.797078 0.190703
0.189449 0.797078 0.173512
0.410762 0.797078 0.173512
0.622687 0.797078 0.173512
0.832891 0.797078 0.173512
1.044401 0.798523 0.173512
0.000000 0.999489 0.191314
0.189449 0.999489 0.173512
0.411422 0.999489 0.173512
0.623810 0.999489 0.173512
0.834420 0.999489 0.173512
1.044401 0.999489 0.173512
0.000000 0.000000 0.364346
0.198929 0.000000 0.364346
0.397840 0.000000 0.364346
0.615556 0.000000 0.375851
0.832891 0.000000 0.381392
1.044401 0.000000 0.382621
0.000000 0.190372 0.364346
0.189449 0.181312 0.364346
0.397840 0.181312 0.364346
0.615556 0.181312 0.372370
0.832891 0.181312 0.376233
1.044401 0.181312 0.376837
0.000000 0.380742 0.364346
0.189449 0.380742 0.364346
0.397840 0.380742 0.364346
0.615556 0.380742 0.364346
0.832891 0.380742 0.364346
1.044401 0.380742 0.364346
0.000000 0.589083 0.375851
0.189449 0.589083 0.372370
0.397840 0.589083 0.364346
0.615556 0.589083 0.364346
0.832891 0.591734 0.364346
1.044401 0.591318 0.364346
0.000000 0.797078 0.381392
0.189449 0.797078 0.376233
0.397840 0.797078 0.364346
0.618299 0.797078 0.364346
0.832891 0.797078 0.364346
1.044401 0.796306 0.364346
0.000000 0.999489 0.382621
0.189449 0.999489 0.376837
0.397840 0.999489 0.364346
0.617868 0.999489 0.364346
0.832138 0.999489 0.364346
1.044401 0.999489 0.364346
0.000000 0.000000 0.563762
0.205187 0.000000 0.563762
0.410397 0.000000 0.563762
0.615556 0.000000 0.563762
0.832891 0.000000 0.572095
1.044401 0.000000 0.573905
0.000000 0.196374 0.563762
0.189449 0.181312 0.563762
0.406569 0.181312 0.563762
0.615556 0.181312 0.563762
0.832891 0.181312 0.570291
1.044401 0.181312 0.571320
0.000000 0.392745 0.563762
0.189449 0.389112 0.563762
0.397840 0.380742 0.563762
0.615556 0.380742 0.563762
0.832891 0.380742 0.566294
1.044401 0.380742 0.565877
0.000000 0.589083 0.563762
0.189449 0.589083 0.563762
0.397840 0.589083 0.563762
0.615556 0.589083 0.563762
0.832891 0.589083 0.563762
1.044401 0.589083 0.563762
0.000000 0.797078 0.572095
0.189449 0.797078 0.570291
0.397840 0.797078 0.566294
0.615556 0.797078 0.563762
0.832891 0.797078 0.563762
1.044401 0.795473 0.563762
0.000000 0.999489 0.573905
0.189449 0.999489 0.571320
0.397840 0.999489 0.565877
0.615556 0.999489 0.563762
0.831212 0.999489 0.563762
1.044401 0.999489 0.563762
0.000000 0.000000 0.762800
0.208231 0.000000 0.762800
0.416445 0.000000 0.762800
0.624656 0.000000 0.762800
0.832891 0.000000 0.762800
1.044401 0.000000 0.765238
0.000000 0.199274 0.762800
0.189449 0.181312 0.762800
0.410762 0.181312 0.762800
0.622687 0.181312 0.762800
0.832891 0.181312 0.762800
1.044401 0.181312 0.764210
0.000000 0.398526 0.762800
0.189449 0.393122 0.762800
0.397840 0.380742 0.762800
0.618299 0.380742 0.762800
0.832891 0.380742 0.762800
1.044401 0.380742 0.762094
0.000000 0.597783 0.762800
0.189449 0.595900 0.762800
0.397840 0.591734 0.762800
0.615556 0.589083 0.762800
0.832891 0.589083 0.762800
1.044401 0.589083 0.761294
0.000000 0.797078 0.762800
0.189449 0.797078 0.762800
0.397840 0.797078 0.762800
0.615556 0.797078 0.762800
0.832891 0.797078 0.762800
1.044401 0.797078 0.762800
0.000000 0.999489 0.765238
0.189449 0.999489 0.764210
0.397840 0.999489 0.762094
0.615556 0.999489 0.761294
0.832891 0.999489 0.762800
1.044401 0.999489 0.762800
0.000000 0.000000 0.956525
0.208881 0.000000 0.956525
0.417768 0.000000 0.956525
0.626641 0.000000 0.956525
0.835501 0.000000 0.956525
1.044401 0.000000 0.956525
0.000000 0.199908 0.956525
0.189449 0.181312 0.956525
0.411422 0.181312 0.956525
0.623810 0.181312 0.956525
0.834420 0.181312 0.956525
1.044401 0.181312 0.956525
0.000000 0.399823 0.956525
0.189449 0.393755 0.956525
0.397840 0.380742 0.956525
0.617868 0.380742 0.956525
0.832138 0.380742 0.956525
1.044401 0.380742 0.956525
0.000000 0.599708 0.956525
0.189449 0.596967 0.956525
0.397840 0.591318 0.956525
0.615556 0.589083 0.956525
0.831212 0.589083 0.956525
1.044401 0.589083 0.956525
0.000000 0.799612 0.956525
0.189449 0.798523 0.956525
0.397840 0.796306 0.956525
0.615556 0.795473 0.956525
0.832891 0.797078 0.956525
1.044401 0.797078 0.956525
0.000000 0.999489 0.956525
0.189449 0.999489 0.956525
0.397840 0.999489 0.956525
0.615556 0.999489 0.956525
0.832891 0.999489 0.956525
1.044401 0.999489 0.956525
