res/luts/warmo.cube
LUT_3D_SIZE 16
0.000000 0.000000 0.000000
0.063428 0.000000 0.000000
0.125074 0.000000 0.000000
0.189449 0.000000 0.000000
0.256836 0.000000 0.000000
0.326568 0.000000 0.000000
0.397840 0.000000 0.000000
0.470079 0.000000 0.000000
0.542720 0.000000 0.000000
0.615556 0.000000 0.000000
0.688377 0.000000 0.000000
0.760798 0.000000 0.000000
0.832891 0.000000 0.000000
0.904327 0.000000 0.000000
0.975188 0.000000 0.000000
1.044401 0.000000 0.000000
0.000000 0.060701 0.000000
0.063428 0.060701 0.000000
0.125074 0.059845 0.000000
0.189449 0.060432 0.000000
0.256836 0.061445 0.000000
0.326568 0.062503 0.000000
0.397840 0.063457 0.000000
0.470079 0.064263 0.000000
0.542720 0.064924 0.000000
0.615556 0.065455 0.000000
0.688377 0.065875 0.000000
0.760798 0.066190 0.000000
0.832891 0.066422 0.000000
0.904327 0.066575 0.000000
0.975188 0.066658 0.000000
1.044401 0.066633 0.000000
0.000000 0.119691 0.000000
0.062535 0.119691 0.000000
0.125074 0.119691 0.000000
0.189449 0.120859 0.000000
0.256836 0.122892 0.000000
0.326568 0.125001 0.000000
0.397840 0.126910 0.000000
0.470079 0.128527 0.000000
0.542720 0.129849 0.000000
0.615556 0.130912 0.000000
0.688377 0.131751 0.000000
0.760798 0.132379 0.000000
0.832891 0.132842 0.000000
0.904327 0.133147 0.000000
0.975188 0.133313 0.000000
1.044401 0.133265 0.000000
0.000000 0.181312 0.000000
0.063148 0.181312 0.000000
0.126295 0.181312 0.000000
0.189449 0.181312 0.000000
0.256836 0.184344 0.000000
0.326568 0.187510 0.000000
0.397840 0.190372 0.000000
0.470079 0.192792 0.000000
0.542720 0.194785 0.000000
0.615556 0.196374 0.000000
0.688377 0.197634 0.000000
0.760798 0.198575 0.000000
0.832891 0.199274 0.000000
0.904327 0.199725 0.000000
0.975188 0.199979 0.000000
1.044401 0.199908 0.000000
0.000000 0.245790 0.000000
0.064208 0.245790 0.000000
0.128421 0.245790 0.000000
0.192624 0.245790 0.000000
0.256836 0.245790 0.000000
0.326568 0.250015 0.000000
0.397840 0.253834 0.000000
0.470079 0.257054 0.000000
0.542720 0.259701 0.000000
0.615556 0.261829 0.000000
0.688377 0.263501 0.000000
0.760798 0.264764 0.000000
0.832891 0.265691 0.000000
0.904327 0.266300 0.000000
0.975188 0.266633 0.000000
1.044401 0.266534 0.000000
0.000000 0.312525 0.000000
0.065311 0.312525 0.000000
0.130627 0.312525 0.000000
0.195943 0.312525 0.000000
0.261248 0.312525 0.000000
0.326568 0.312525 0.000000
0.397840 0.317293 0.000000
0.470079 0.321319 0.000000
0.542720 0.324639 0.000000
0.615556 0.327311 0.000000
0.688377 0.329382 0.000000
0.760798 0.330960 0.000000
0.832891 0.332108 0.000000
0.904327 0.332883 0.000000
0.975188 0.333301 0.000000
1.044401 0.333198 0.000000
0.000000 0.380742 0.000000
0.066308 0.380742 0.000000
0.132616 0.380742 0.000000
0.198929 0.380742 0.000000
0.265235 0.380742 0.000000
0.331554 0.380742 0.000000
0.397840 0.380742 0.000000
0.470079 0.385572 0.000000
0.542720 0.389568 0.000000
0.615556 0.392745 0.000000
0.688377 0.395258 0.000000
0.760798 0.397137 0.000000
0.832891 0.398526 0.000000
0.904327 0.399451 0.000000
0.975188 0.399956 0.000000
1.044401 0.399823 0.000000
0.000000 0.449867 0.000000
0.067147 0.449867 0.000000
0.134299 0.449867 0.000000
0.201447 0.449867 0.000000
0.268606 0.449867 0.000000
0.335768 0.449867 0.000000
0.402913 0.449867 0.000000
0.470079 0.449867 0.000000
0.542720 0.454511 0.000000
0.615556 0.458220 0.000000
0.688377 0.461151 0.000000
0.760798 0.463363 0.000000
0.832891 0.464984 0.000000
0.904327 0.466051 0.000000
0.975188 0.466636 0.000000
1.044401 0.466464 0.000000
0.000000 0.519395 0.000000
0.067839 0.519395 0.000000
0.135681 0.519395 0.000000
0.203527 0.519395 0.000000
0.271363 0.519395 0.000000
0.339230 0.519395 0.000000
0.407048 0.519395 0.000000
0.474917 0.519395 0.000000
0.542720 0.519395 0.000000
0.615556 0.523624 0.000000
0.688377 0.527009 0.000000
0.760798 0.529515 0.000000
0.832891 0.531368 0.000000
0.904327 0.532581 0.000000
0.975188 0.533275 0.000000
1.044401 0.533076 0.000000
0.000000 0.589083 0.000000
0.068398 0.589083 0.000000
0.136793 0.589083 0.000000
0.205187 0.589083 0.000000
0.273597 0.589083 0.000000
0.341989 0.589083 0.000000
0.410397 0.589083 0.000000
0.478810 0.589083 0.000000
0.547165 0.589083 0.000000
0.615556 0.589083 0.000000
0.688377 0.592883 0.000000
0.760798 0.595705 0.000000
0.832891 0.597783 0.000000
0.904327 0.599148 0.000000
0.975188 0.599902 0.000000
1.044401 0.599708 0.000000
0.000000 0.658768 0.000000
0.068836 0.658768 0.000000
0.137670 0.658768 0.000000
0.206504 0.658768 0.000000
0.275348 0.658768 0.000000
0.344190 0.658768 0.000000
0.412995 0.658768 0.000000
0.481888 0.658768 0.000000
0.550689 0.658768 0.000000
0.619511 0.658768 0.000000
0.688377 0.658768 0.000000
0.760798 0.661911 0.000000
0.832891 0.664218 0.000000
0.904327 0.665781 0.000000
0.975188 0.666612 0.000000
1.044401 0.666397 0.000000
0.000000 0.728099 0.000000
0.069162 0.728099 0.000000
0.138327 0.728099 0.000000
0.207494 0.728099 0.000000
0.276657 0.728099 0.000000
0.345832 0.728099 0.000000
0.414977 0.728099 0.000000
0.484174 0.728099 0.000000
0.553321 0.728099 0.000000
0.622461 0.728099 0.000000
0.691667 0.728099 0.000000
0.760798 0.728099 0.000000
0.832891 0.730719 0.000000
0.904327 0.732388 0.000000
0.975188 0.733256 0.000000
1.044401 0.732980 0.000000
0.000000 0.797078 0.000000
0.069404 0.797078 0.000000
0.138810 0.797078 0.000000
0.208231 0.797078 0.000000
0.277625 0.797078 0.000000
0.347048 0.797078 0.000000
0.416445 0.797078 0.000000
0.485881 0.797078 0.000000
0.555253 0.797078 0.000000
0.624656 0.797078 0.000000
0.694099 0.797078 0.000000
0.763489 0.797078 0.000000
0.832891 0.797078 0.000000
0.904327 0.798900 0.000000
0.975188 0.799901 0.000000
1.044401 0.799612 0.000000
0.000000 0.865450 0.000000
0.069565 0.865450 0.000000
0.139132 0.865450 0.000000
0.208694 0.865450 0.000000
0.278268 0.865450 0.000000
0.347838 0.865450 0.000000
0.417378 0.865450 0.000000
0.486992 0.865450 0.000000
0.556548 0.865450 0.000000
0.626089 0.865450 0.000000
0.695657 0.865450 0.000000
0.765257 0.865450 0.000000
0.834767 0.865450 0.000000
0.904327 0.865450 0.000000
0.975188 0.866530 0.000000
1.044401 0.866227 0.000000
0.000000 0.933239 0.000000
0.069654 0.933239 0.000000
0.139301 0.933239 0.000000
0.208959 0.933239 0.000000
0.278605 0.933239 0.000000
0.348295 0.933239 0.000000
0.417898 0.933239 0.000000
0.487595 0.933239 0.000000
0.557224 0.933239 0.000000
0.626876 0.933239 0.000000
0.696581 0.933239 0.000000
0.766213 0.933239 0.000000
0.835813 0.933239 0.000000
0.905446 0.933239 0.000000
0.975188 0.933239 0.000000
1.044401 0.932927 0.000000
0.000000 0.999489 0.000000
0.069627 0.999489 0.000000
0.139253 0.999489 0.000000
0.208881 0.999489 0.000000
0.278515 0.999489 0.000000
0.348164 0.999489 0.000000
0.417768 0.999489 0.000000
0.487417 0.999489 0.000000
0.557031 0.999489 0.000000
0.626641 0.999489 0.000000
0.696317 0.999489 0.000000
0.765934 0.999489 0.000000
0.835501 0.999489 0.000000
0.905150 0.999489 0.000000
0.974830 0.999489 0.000000
1.044401 0.999489 0.000000
0.000000 0.000000 0.058090
0.063428 0.000000 0.058090
0.125074 0.000000 0.057272
0.189449 0.000000 0.057833
0.256836 0.000000 0.058804
0.326568 0.000000 0.059814
0.397840 0.000000 0.060728
0.470079 0.000000 0.061498
0.542720 0.000000 0.062133
0.615556 0.000000 0.062642
0.688377 0.000000 0.063044
0.760798 0.000000 0.063345
0.832891 0.000000 0.063565
0.904327 0.000000 0.063712
0.975188 0.000000 0.063790
1.044401 0.000000 0.063768
0.000000 0.060701 0.058090
0.063428 0.060701 0.058090
0.125074 0.060701 0.058090
0.189449 0.060701 0.058090
0.256836 0.060701 0.058090
0.326568 0.060701 0.058090
0.397840 0.060701 0.058090
0.470079 0.060701 0.058090
0.542720 0.060701 0.058090
0.615556 0.060701 0.058090
0.688377 0.060701 0.058090
0.760798 0.060701 0.058090
0.832891 0.060701 0.058090
0.904327 0.060701 0.058090
0.975188 0.060701 0.058090
1.044401 0.060701 0.058090
0.000000 0.119691 0.057272
0.063428 0.119691 0.058090
0.125074 0.119691 0.058090
0.189449 0.120932 0.058090
0.256836 0.122658 0.058090
0.326568 0.124393 0.058090
0.397840 0.125960 0.058090
0.470079 0.127267 0.058090
0.542720 0.128358 0.058090
0.615556 0.129223 0.058090
0.688377 0.129911 0.058090
0.760798 0.130426 0.058090
0.832891 0.130804 0.058090
0.904327 0.131052 0.058090
0.975188 0.131187 0.058090
1.044401 0.131145 0.058090
0.000000 0.181312 0.057833
0.063428 0.181312 0.058090
0.126368 0.181312 0.058090
0.189449 0.181312 0.058090
0.256836 0.184267 0.058090
0.326568 0.187236 0.058090
0.397840 0.189895 0.058090
0.470079 0.192145 0.058090
0.542720 0.193984 0.058090
0.615556 0.195462 0.058090
0.688377 0.196630 0.058090
0.760798 0.197496 0.058090
0.832891 0.198150 0.058090
0.904327 0.198571 0.058090
0.975188 0.198787 0.058090
1.044401 0.198720 0.058090
0.000000 0.245790 0.058804
0.063428 0.245790 0.058090
0.128167 0.245790 0.058090
0.192540 0.245790 0.058090
0.256836 0.245790 0.058090
0.326568 0.249907 0.058090
0.397840 0.253589 0.058090
0.470079 0.256684 0.058090
0.542720 0.259229 0.058090
0.615556 0.261265 0.058090
0.688377 0.262878 0.058090
0.760798 0.264080 0.058090
0.832891 0.264973 0.058090
0.904327 0.265547 0.058090
0.975188 0.265874 0.058090
1.044401 0.265772 0.058090
0.000000 0.312525 0.059814
0.063428 0.312525 0.058090
0.129987 0.312525 0.058090
0.195649 0.312525 0.058090
0.261137 0.312525 0.058090
0.326568 0.312525 0.058090
0.397840 0.317203 0.058090
0.470079 0.321124 0.058090
0.542720 0.324349 0.058090
0.615556 0.326922 0.058090
0.688377 0.328980 0.058090
0.760798 0.330501 0.058090
0.832891 0.331617 0.058090
0.904327 0.332353 0.058090
0.975188 0.332772 0.058090
1.044401 0.332629 0.058090
0.000000 0.380742 0.060728
0.063428 0.380742 0.058090
0.131617 0.380742 0.058090
0.198447 0.380742 0.058090
0.264983 0.380742 0.058090
0.331445 0.380742 0.058090
0.397840 0.380742 0.058090
0.470079 0.385503 0.058090
0.542720 0.389397 0.058090
0.615556 0.392526 0.058090
0.688377 0.394975 0.058090
0.760798 0.396809 0.058090
0.832891 0.398171 0.058090
0.904327 0.399059 0.058090
0.975188 0.399568 0.058090
1.044401 0.399406 0.058090
0.000000 0.449867 0.061498
0.063428 0.449867 0.058090
0.132989 0.449867 0.058090
0.200785 0.449867 0.058090
0.268218 0.449867 0.058090
0.335568 0.449867 0.058090
0.402830 0.449867 0.058090
0.470079 0.449867 0.058090
0.542720 0.454431 0.058090
0.615556 0.458091 0.058090
0.688377 0.460958 0.058090
0.760798 0.463136 0.058090
0.832891 0.464725 0.058090
0.904327 0.465766 0.058090
0.975188 0.466331 0.058090
1.044401 0.466152 0.058090
0.000000 0.519395 0.062133
0.063428 0.519395 0.058090
0.134120 0.519395 0.058090
0.202707 0.519395 0.058090
0.270872 0.519395 0.058090
0.338926 0.519395 0.058090
0.406887 0.519395 0.058090
0.474850 0.519395 0.058090
0.542720 0.519395 0.058090
0.615556 0.523582 0.058090
0.688377 0.526895 0.058090
0.760798 0.529369 0.058090
0.832891 0.531188 0.058090
0.904327 0.532382 0.058090
0.975188 0.533031 0.058090
1.044401 0.532839 0.058090
0.000000 0.589083 0.062642
0.063428 0.589083 0.058090
0.135029 0.589083 0.058090
0.204242 0.589083 0.058090
0.273012 0.589083 0.058090
0.341627 0.589083 0.058090
0.410129 0.589083 0.058090
0.478673 0.589083 0.058090
0.547129 0.589083 0.058090
0.615556 0.589083 0.058090
0.688377 0.592823 0.058090
0.760798 0.595614 0.058090
0.832891 0.597669 0.058090
0.904327 0.599019 0.058090
0.975188 0.599754 0.058090
1.044401 0.599518 0.058090
0.000000 0.658768 0.063044
0.063428 0.658767 0.058090
0.135746 0.658767 0.058090
0.205462 0.658767 0.058090
0.274690 0.658767 0.058090
0.343753 0.658767 0.058090
0.412723 0.658767 0.058090
0.481677 0.658767 0.058090
0.550576 0.658767 0.058090
0.619428 0.658767 0.058090
0.688377 0.658767 0.058090
0.760798 0.661895 0.058090
0.832891 0.664166 0.058090
0.904327 0.665684 0.058090
0.975188 0.666492 0.058090
1.044401 0.666240 0.058090
0.000000 0.728099 0.063345
0.063428 0.728099 0.058090
0.136284 0.728099 0.058090
0.206378 0.728099 0.058090
0.275948 0.728099 0.058090
0.345354 0.728099 0.058090
0.414660 0.728099 0.058090
0.483934 0.728099 0.058090
0.553144 0.728099 0.058090
0.622371 0.728099 0.058090
0.691617 0.728099 0.058090
0.760798 0.728099 0.058090
0.832891 0.730660 0.058090
0.904327 0.732278 0.058090
0.975188 0.733153 0.058090
1.044401 0.732891 0.058090
0.000000 0.797078 0.063565
0.063428 0.797078 0.058090
0.136682 0.797078 0.058090
0.207053 0.797078 0.058090
0.276874 0.797078 0.058090
0.346535 0.797078 0.058090
0.416074 0.797078 0.058090
0.485610 0.797078 0.058090
0.555029 0.797078 0.058090
0.624539 0.797078 0.058090
0.694030 0.797078 0.058090
0.763445 0.797078 0.058090
0.832891 0.797078 0.058090
0.904327 0.798864 0.058090
0.975188 0.799836 0.058090
1.044401 0.799525 0.058090
0.000000 0.865450 0.063712
0.063428 0.865450 0.058090
0.136945 0.865450 0.058090
0.207490 0.865450 0.058090
0.277480 0.865450 0.058090
0.347308 0.865450 0.058090
0.416993 0.865450 0.058090
0.486701 0.865450 0.058090
0.556317 0.865450 0.058090
0.625954 0.865450 0.058090
0.695578 0.865450 0.058090
0.765184 0.865450 0.058090
0.834728 0.865450 0.058090
0.904327 0.865450 0.058090
0.975188 0.866518 0.058090
1.044401 0.866169 0.058090
0.000000 0.933239 0.063790
0.063428 0.933239 0.058090
0.137085 0.933239 0.058090
0.207733 0.933239 0.058090
0.277806 0.933239 0.058090
0.347723 0.933239 0.058090
0.417499 0.933239 0.058090
0.487271 0.933239 0.058090
0.556972 0.933239 0.058090
0.626691 0.933239 0.058090
0.696433 0.933239 0.058090
0.766107 0.933239 0.058090
0.835766 0.933239 0.058090
0.905436 0.933239 0.058090
0.975188 0.933239 0.058090
1.044401 0.932898 0.058090
0.000000 0.999489 0.063768
0.063428 0.999489 0.058090
0.137039 0.999489 0.058090
0.207649 0.999489 0.058090
0.277712 0.999489 0.058090
0.347583 0.999489 0.058090
0.417343 0.999489 0.058090
0.487092 0.999489 0.058090
0.556762 0.999489 0.058090
0.626471 0.999489 0.058090
0.696174 0.999489 0.058090
0.765808 0.999489 0.058090
0.835436 0.999489 0.058090
0.905087 0.999489 0.058090
0.974846 0.999489 0.058090
1.044401 0.999489 0.058090
0.000000 0.000000 0.114546
0.062535 0.000000 0.114546
0.125074 0.000000 0.114546
0.189449 0.000000 0.115668
0.256836 0.000000 0.117609
0.326568 0.000000 0.119627
0.397840 0.000000 0.121458
0.470079 0.000000 0.122995
0.542720 0.000000 0.124270
0.615556 0.000000 0.125278
0.688377 0.000000 0.126086
0.760798 0.000000 0.126688
0.832891 0.000000 0.127131
0.904327 0.000000 0.127425
0.975188 0.000000 0.127585
1.044401 0.000000 0.127538
0.000000 0.059845 0.114546
0.063428 0.060701 0.114546
0.125074 0.060701 0.114546
0.189449 0.060701 0.115732
0.256836 0.060701 0.117383
0.326568 0.060701 0.119047
0.397840 0.060701 0.120543
0.470079 0.060701 0.121798
0.542720 0.060701 0.122837
0.615556 0.060701 0.123665
0.688377 0.060701 0.124324
0.760798 0.060701 0.124818
0.832891 0.060701 0.125180
0.904327 0.060701 0.125420
0.975188 0.060701 0.125545
1.044401 0.060701 0.125505
0.000000 0.119691 0.114546
0.063428 0.119691 0.114546
0.125074 0.119691 0.114546
0.189449 0.119691 0.114546
0.256836 0.119691 0.114546
0.326568 0.119691 0.114546
0.397840 0.119691 0.114546
0.470079 0.119691 0.114546
0.542720 0.119691 0.114546
0.615556 0.119691 0.114546
0.688377 0.119691 0.114546
0.760798 0.119691 0.114546
0.832891 0.119691 0.114546
0.904327 0.119691 0.114546
0.975188 0.119691 0.114546
1.044401 0.119691 0.114546
0.000000 0.181312 0.115668
0.063428 0.181312 0.115732
0.125074 0.181312 0.114546
0.189449 0.181312 0.114546
0.256836 0.183249 0.114546
0.326568 0.185174 0.114546
0.397840 0.186908 0.114546
0.470079 0.188353 0.114546
0.542720 0.189567 0.114546
0.615556 0.190547 0.114546
0.688377 0.191320 0.114546
0.760798 0.191897 0.114546
0.832891 0.192317 0.114546
0.904327 0.192593 0.114546
0.975188 0.192732 0.114546
1.044401 0.192665 0.114546
0.000000 0.245790 0.117609
0.063428 0.245790 0.117383
0.125074 0.245790 0.114546
0.191483 0.245790 0.114546
0.256836 0.245790 0.114546
0.326568 0.249100 0.114546
0.397840 0.252061 0.114546
0.470079 0.254555 0.114546
0.542720 0.256617 0.114546
0.615556 0.258267 0.114546
0.688377 0.259579 0.114546
0.760798 0.260555 0.114546
0.832891 0.261268 0.114546
0.904327 0.261727 0.114546
0.975188 0.261973 0.114546
1.044401 0.261858 0.114546
0.000000 0.312525 0.119627
0.063428 0.312525 0.119047
0.125074 0.312525 0.114546
0.193491 0.312525 0.114546
0.260297 0.312525 0.114546
0.326568 0.312525 0.114546
0.397840 0.316559 0.114546
0.470079 0.319963 0.114546
0.542720 0.322761 0.114546
0.615556 0.325019 0.114546
0.688377 0.326789 0.114546
0.760798 0.328118 0.114546
0.832891 0.329099 0.114546
0.904327 0.329699 0.114546
0.975188 0.330040 0.114546
1.044401 0.329870 0.114546
0.000000 0.380742 0.121458
0.063428 0.380742 0.120543
0.125074 0.380742 0.114546
0.195299 0.380742 0.114546
0.263388 0.380742 0.114546
0.330788 0.380742 0.114546
0.397840 0.380742 0.114546
0.470079 0.384994 0.114546
0.542720 0.388474 0.114546
0.615556 0.391268 0.114546
0.688377 0.393506 0.114546
0.760798 0.395134 0.114546
0.832891 0.396369 0.114546
0.904327 0.397143 0.114546
0.975188 0.397543 0.114546
1.044401 0.397390 0.114546
0.000000 0.449867 0.122995
0.063428 0.449867 0.121798
0.125074 0.449867 0.114546
0.196827 0.449867 0.114546
0.266000 0.449867 0.114546
0.334338 0.449867 0.114546
0.402285 0.449867 0.114546
0.470079 0.449867 0.114546
0.542720 0.454027 0.114546
0.615556 0.457369 0.114546
0.688377 0.459998 0.114546
0.760798 0.461973 0.114546
0.832891 0.463421 0.114546
0.904327 0.464342 0.114546
0.975188 0.464834 0.114546
1.044401 0.464615 0.114546
0.000000 0.519395 0.124270
0.063428 0.519395 0.122837
0.125074 0.519395 0.114546
0.198088 0.519395 0.114546
0.268143 0.519395 0.114546
0.337252 0.519395 0.114546
0.405933 0.519395 0.114546
0.474427 0.519395 0.114546
0.542720 0.519395 0.114546
0.615556 0.523248 0.114546
0.688377 0.526319 0.114546
0.760798 0.528587 0.114546
0.832891 0.530257 0.114546
0.904327 0.531343 0.114546
0.975188 0.531887 0.114546
1.044401 0.531651 0.114546
0.000000 0.589083 0.125278
0.063428 0.589083 0.123665
0.125074 0.589083 0.114546
0.199106 0.589083 0.114546
0.269878 0.589083 0.114546
0.339604 0.589083 0.114546
0.408859 0.589083 0.114546
0.477921 0.589083 0.114546
0.546776 0.589083 0.114546
0.615556 0.589083 0.114546
0.688377 0.592578 0.114546
0.760798 0.595138 0.114546
0.832891 0.597019 0.114546
0.904327 0.598250 0.114546
0.975188 0.598876 0.114546
1.044401 0.598610 0.114546
0.000000 0.658768 0.126086
0.063428 0.658767 0.124324
0.125074 0.658767 0.114546
0.199907 0.658767 0.114546
0.271233 0.658767 0.114546
0.341472 0.658767 0.114546
0.411180 0.658767 0.114546
0.480677 0.658767 0.114546
0.549956 0.658767 0.114546
0.619178 0.658767 0.114546
0.688377 0.658767 0.114546
0.760798 0.661652 0.114546
0.832891 0.663783 0.114546
0.904327 0.665151 0.114546
0.975188 0.665878 0.114546
1.044401 0.665546 0.114546
0.000000 0.728099 0.126688
0.063428 0.728099 0.124818
0.125074 0.728099 0.114546
0.200515 0.728099 0.114546
0.272261 0.728099 0.114546
0.342867 0.728099 0.114546
0.412905 0.728099 0.114546
0.482722 0.728099 0.114546
0.552342 0.728099 0.114546
0.621875 0.728099 0.114546
0.691401 0.728099 0.114546
0.760798 0.728099 0.114546
0.832891 0.730483 0.114546
0.904327 0.731944 0.114546
0.975188 0.732760 0.114546
1.044401 0.732401 0.114546
0.000000 0.797078 0.127131
0.063428 0.797078 0.125180
0.125074 0.797078 0.114546
0.200959 0.797078 0.114546
0.273009 0.797078 0.114546
0.343868 0.797078 0.114546
0.414197 0.797078 0.114546
0.484244 0.797078 0.114546
0.554088 0.797078 0.114546
0.623895 0.797078 0.114546
0.693633 0.797078 0.114546
0.763232 0.797078 0.114546
0.832891 0.797078 0.114546
0.904327 0.798726 0.114546
0.975188 0.799569 0.114546
1.044401 0.799157 0.114546
0.000000 0.865450 0.127425
0.063428 0.865450 0.125420
0.125074 0.865450 0.114546
0.201244 0.865450 0.114546
0.273494 0.865450 0.114546
0.344517 0.865450 0.114546
0.414984 0.865450 0.114546
0.485218 0.865450 0.114546
0.555202 0.865450 0.114546
0.625156 0.865450 0.114546
0.695066 0.865450 0.114546
0.764830 0.865450 0.114546
0.834605 0.865450 0.114546
0.904327 0.865450 0.114546
0.975188 0.866374 0.114546
1.044401 0.865918 0.114546
0.000000 0.933239 0.127585
0.063428 0.933239 0.125545
0.125074 0.933239 0.114546
0.201389 0.933239 0.114546
0.273742 0.933239 0.114546
0.344855 0.933239 0.114546
0.415412 0.933239 0.114546
0.485717 0.933239 0.114546
0.555802 0.933239 0.114546
0.625800 0.933239 0.114546
0.695778 0.933239 0.114546
0.765664 0.933239 0.114546
0.835483 0.933239 0.114546
0.905316 0.933239 0.114546
0.975188 0.933239 0.114546
1.044401 0.932787 0.114546
0.000000 0.999489 0.127538
0.063428 0.999489 0.125505
0.125074 0.999489 0.114546
0.201329 0.999489 0.114546
0.273632 0.999489 0.114546
0.344694 0.999489 0.114546
0.415242 0.999489 0.114546
0.485479 0.999489 0.114546
0.555524 0.999489 0.114546
0.625490 0.999489 0.114546
0.695454 0.999489 0.114546
0.765299 0.999489 0.114546
0.835067 0.999489 0.114546
0.904854 0.999489 0.114546
0.974734 0.999489 0.114546
1.044401 0.999489 0.114546
0.000000 0.000000 0.173512
0.063148 0.000000 0.173512
0.126295 0.000000 0.173512
0.189449 0.000000 0.173512
0.256836 0.000000 0.176415
0.326568 0.000000 0.179442
0.397840 0.000000 0.182179
0.470079 0.000000 0.184506
0.542720 0.000000 0.186405
0.615556 0.000000 0.187927
0.688377 0.000000 0.189131
0.760798 0.000000 0.190031
0.832891 0.000000 0.190703
0.904327 0.000000 0.191135
0.975188 0.000000 0.191376
1.044401 0.000000 0.191314
0.000000 0.060432 0.173512
0.063428 0.060701 0.173512
0.126368 0.060701 0.173512
0.189449 0.060701 0.173512
0.256836 0.060701 0.176346
0.326568 0.060701 0.179184
0.397840 0.060701 0.181748
0.470079 0.060701 0.183879
0.542720 0.060701 0.185642
0.615556 0.060701 0.187056
0.688377 0.060701 0.188176
0.760798 0.060701 0.189021
0.832891 0.060701 0.189636
0.904327 0.060701 0.190027
0.975188 0.060701 0.190255
1.044401 0.060701 0.190184
0.000000 0.120859 0.173512
0.063428 0.120932 0.173512
0.125074 0.119691 0.173512
0.189449 0.119691 0.173512
0.256836 0.119691 0.175368
0.326568 0.119691 0.177198
0.397840 0.119691 0.178860
0.470079 0.119691 0.180267
0.542720 0.119691 0.181432
0.615556 0.119691 0.182348
0.688377 0.119691 0.183096
0.760798 0.119691 0.183634
0.832891 0.119691 0.184052
0.904327 0.119691 0.184299
0.975188 0.119691 0.184448
1.044401 0.119691 0.184374
0.000000 0.181312 0.173512
0.063428 0.181312 0.173512
0.125074 0.181312 0.173512
0.189449 0.181312 0.173512
0.256836 0.181312 0.173512
0.326568 0.181312 0.173512
0.397840 0.181312 0.173512
0.470079 0.181312 0.173512
0.542720 0.181312 0.173512
0.615556 0.181312 0.173512
0.688377 0.181312 0.173512
0.760798 0.181312 0.173512
0.832891 0.181312 0.173512
0.904327 0.181312 0.173512
0.975188 0.181312 0.173512
1.044401 0.181312 0.173512
0.000000 0.245790 0.176415
0.063428 0.245790 0.176346
0.125074 0.245790 0.175368
0.189449 0.245790 0.173512
0.256836 0.245790 0.173512
0.326568 0.247615 0.173512
0.397840 0.249268 0.173512
0.470079 0.250681 0.173512
0.542720 0.251855 0.173512
0.615556 0.252801 0.173512
0.688377 0.253553 0.173512
0.760798 0.254110 0.173512
0.832891 0.254518 0.173512
0.904327 0.254770 0.173512
0.975188 0.254886 0.173512
1.044401 0.254784 0.173512
0.000000 0.312525 0.179442
0.063428 0.312525 0.179184
0.125074 0.312525 0.177198
0.189449 0.312525 0.173512
0.258747 0.312525 0.173512
0.326568 0.312525 0.173512
0.397840 0.315409 0.173512
0.470079 0.317857 0.173512
0.542720 0.319893 0.173512
0.615556 0.321529 0.173512
0.688377 0.322827 0.173512
0.760798 0.323796 0.173512
0.832891 0.324500 0.173512
0.904327 0.324936 0.173512
0.975188 0.325132 0.173512
1.044401 0.324961 0.173512
0.000000 0.380742 0.182179
0.063428 0.380742 0.181748
0.125074 0.380742 0.178860
0.189449 0.380742 0.173512
0.260473 0.380742 0.173512
0.329593 0.380742 0.173512
0.397840 0.380742 0.173512
0.470079 0.384104 0.173512
0.542720 0.386872 0.173512
0.615556 0.389112 0.173512
0.688377 0.390855 0.173512
0.760798 0.392179 0.173512
0.832891 0.393122 0.173512
0.904327 0.393711 0.173512
0.975188 0.393983 0.173512
1.044401 0.393755 0.173512
0.000000 0.449867 0.184506
0.063428 0.449867 0.183879
0.125074 0.449867 0.180267
0.189449 0.449867 0.173512
0.261942 0.449867 0.173512
0.332122 0.449867 0.173512
0.401341 0.449867 0.173512
0.470079 0.449867 0.173512
